material/.icons/material/trophy-outline.svg

<svg xmlns="http://www.w3.org/2000/svg" viewBox="0 0 24 24"><path d="M18 2c-.9 0-2 1-2 2H8c0-1-1.1-2-2-2H2v9c0 1 1 2 2 2h2.2c.4 2 1.7 3.7 4.8 4v2.08C8 19.54 8 22 8 22h8s0-2.46-3-2.92V17c3.1-.3 4.4-2 4.8-4H20c1 0 2-1 2-2V2h-4M6 11H4V4h2v7m10 .5c0 1.93-.58 3.5-4 3.5-3.41 0-4-1.57-4-3.5V6h8v5.5m4-.5h-2V4h2v7z"/></svg>

<?xml version="1.0" encoding="UTF-8"?><!DOCTYPE svg PUBLIC "-//W3C//DTD SVG 1.1//EN" "http://www.w3.org/Graphics/SVG/1.1/DTD/svg11.dtd"><svg xmlns="http://www.w3.org/2000/svg" xmlns:xlink="http://www.w3.org/1999/xlink" version="1.1" id="mdi-trophy-outline" width="24" height="24" viewBox="0 0 24 24"><path d="M18 2C17.1 2 16 3 16 4H8C8 3 6.9 2 6 2H2V11C2 12 3 13 4 13H6.2C6.6 15 7.9 16.7 11 17V19.08C8 19.54 8 22 8 22H16C16 22 16 19.54 13 19.08V17C16.1 16.7 17.4 15 17.8 13H20C21 13 22 12 22 11V2H18M6 11H4V4H6V11M16 11.5C16 13.43 15.42 15 12 15C8.59 15 8 13.43 8 11.5V6H16V11.5M20 11H18V4H20V11Z" /></svg>
